X:66
T:Tarbolton, The
R:reel
Z:Transcribed by Dave Marshall
M:C|
K:Eminor
|:Beed ~e2BA|GBAF GFEF|Ddd^c d2AG|FBAG FDD2|
Beed efge|fedf edBA|G2BG FGAc|BGAF GEE2:|
|:g2ef gebe|gebe gfef|d2fd adfd|ABAG FDDF|
G2BG FGAF|~E2ef gfed|~B3A FGAc|BGAF GEE2:|
